docs/public/img/providers/identity-server4.svg

<?xml version="1.0" encoding="UTF-8"?>
<!DOCTYPE svg PUBLIC "-//W3C//DTD SVG 1.1//EN" "http://www.w3.org/Graphics/SVG/1.1/DTD/svg11.dtd">
<svg xmlns="http://www.w3.org/2000/svg" version="1.1" width="598px" height="602px" style="shape-rendering:geometricPrecision; text-rendering:geometricPrecision; image-rendering:optimizeQuality; fill-rule:evenodd; clip-rule:evenodd" xmlns:xlink="http://www.w3.org/1999/xlink">
<g><path style="opacity:0.988" fill="#231f20" d="M 282.5,-0.5 C 294.5,-0.5 306.5,-0.5 318.5,-0.5C 424.381,9.27224 504.547,59.6056 559,150.5C 581.33,191.507 594.163,235.174 597.5,281.5C 597.5,294.167 597.5,306.833 597.5,319.5C 589.653,415.382 547.32,491.882 470.5,549C 426.412,579.21 377.745,596.71 324.5,601.5C 308.5,601.5 292.5,601.5 276.5,601.5C 176.355,590.702 98.8548,543.368 44,459.5C 18.2029,416.945 3.36962,370.945 -0.5,321.5C -0.5,307.5 -0.5,293.5 -0.5,279.5C 10.1777,174.075 60.511,93.9079 150.5,39C 191.626,15.8897 235.626,2.72304 282.5,-0.5 Z"/></g>
<g><path style="opacity:1" fill="#fefefe" d="M 277.5,35.5 C 360.2,30.777 430.7,57.4437 489,115.5C 556.689,192.612 577.023,280.945 550,380.5C 521.234,467.599 463.401,525.765 376.5,555C 281.669,580.239 197.003,561.239 122.5,498C 52.8695,431.115 25.0361,349.615 39,253.5C 58.1839,163.008 109.351,97.8414 192.5,58C 219.831,46.2522 248.164,38.7522 277.5,35.5 Z"/></g>
<g><path style="opacity:1" fill="#f8971d" d="M 353.5,85.5 C 354.5,211.999 354.833,338.666 354.5,465.5C 328.868,481.655 302.868,497.322 276.5,512.5C 276.5,491.167 276.5,469.833 276.5,448.5C 276.333,340.499 276.5,232.499 277,124.5C 302.605,111.615 328.105,98.6147 353.5,85.5 Z"/></g>
<g><path style="opacity:0.812" fill="#fef6ec" d="M 353.5,85.5 C 353.56,84.9569 353.893,84.6236 354.5,84.5C 355.832,211.666 355.832,338.666 354.5,465.5C 354.833,338.666 354.5,211.999 353.5,85.5 Z"/></g>
<g><path style="opacity:1" fill="#231f20" d="M 370.5,187.5 C 399.012,191.462 426.346,199.462 452.5,211.5C 456.904,204.364 461.071,197.031 465,189.5C 483.999,218.161 502.499,247.161 520.5,276.5C 483.541,283.593 446.541,290.093 409.5,296C 414.246,286.508 419.246,277.174 424.5,268C 407.533,259.567 389.7,253.733 371,250.5C 370.5,229.503 370.333,208.503 370.5,187.5 Z"/></g>
<g><path style="opacity:1" fill="#231f20" d="M 276.5,448.5 C 276.5,469.833 276.5,491.167 276.5,512.5C 225.731,504.036 182.898,481.036 148,443.5C 108.915,393.76 103.915,340.76 133,284.5C 154.819,250.348 184.319,225.182 221.5,209C 234.117,203.356 247.117,198.856 260.5,195.5C 260.667,217.169 260.5,238.836 260,260.5C 230.293,271.007 206.293,289.007 188,314.5C 173.019,339.238 172.685,364.238 187,389.5C 202.029,412.188 222.196,428.688 247.5,439C 256.882,443.072 266.549,446.239 276.5,448.5 Z"/></g>
</svg>

<svg fill-rule="evenodd" clip-rule="evenodd" image-rendering="optimizeQuality" shape-rendering="geometricPrecision" text-rendering="geometricPrecision" viewBox="0 0 598 602"><path fill="#231f20" d="M282.5-.5h36c105.9 9.8 186 60.1 240.5 151 22.3 41 35.2 84.7 38.5 131v38c-7.8 95.9-50.2 172.4-127 229.5a302 302 0 0 1-146 52.5h-48C176.4 590.7 98.9 543.4 44 459.5a309.2 309.2 0 0 1-44.5-138v-42c10.7-105.4 61-185.6 151-240.5a309.6 309.6 0 0 1 132-39.5Z"/><path fill="#fefefe" d="M277.5 35.5c82.7-4.7 153.2 22 211.5 80 67.7 77.1 88 165.4 61 265-28.8 87.1-86.6 145.3-173.5 174.5-94.8 25.2-179.5 6.2-254-57C52.9 431.1 25 349.6 39 253.5 58.2 163 109.4 97.8 192.5 58a297 297 0 0 1 85-22.5Z"/><path fill="#f8971d" d="M353.5 85.5c1 126.5 1.3 253.2 1 380a2272.3 2272.3 0 0 1-78 47v-64c-.2-108 0-216 .5-324a8192 8192 0 0 0 76.5-39Z"/><path fill="#fef6ec" d="M353.5 85.5c0-.5.4-.9 1-1 1.3 127.2 1.3 254.2 0 381 .3-126.8 0-253.5-1-380Z" opacity=".8"/><path fill="#231f20" d="M370.5 187.5c28.5 4 55.8 12 82 24a351 351 0 0 0 12.5-22c19 28.7 37.5 57.7 55.5 87-37 7-74 13.6-111 19.5 4.7-9.5 9.7-18.8 15-28a194 194 0 0 0-53.5-17.5c-.5-21-.7-42-.5-63Z"/><path fill="#231f20" d="M276.5 448.5v64a220.3 220.3 0 0 1-128.5-69c-39-49.7-44-102.7-15-159a195.2 195.2 0 0 1 88.5-75.5 235.8 235.8 0 0 1 39-13.5c.2 21.7 0 43.3-.5 65a146.9 146.9 0 0 0-72 54 69.5 69.5 0 0 0-1 75c15 22.7 35.2 39.2 60.5 49.5 9.4 4 19 7.2 29 9.5Z"/></svg>
